static/images/logo.svg

<svg width="163" height="50" viewBox="0 0 163 50" xmlns="http://www.w3.org/2000/svg"><g fill="none" fill-rule="evenodd"><path fill="#EF3054" d="M26 5v11.037L0 42V30.963L26 5M49.11 3.21v13.651L17 48.971v-13.65L49.11 3.21"/><path fill="#8696A6" opacity=".5" d="M33 4v11.037L7 41V29.963L33 4M58.676.41v13.651l-32.11 32.11v-13.65L58.676.41"/><path d="M63.944 49.432c1.312 0 2.696-.184 4.152-.552 1.456-.368 2.728-.92 3.816-1.656.608-.384.984-.84 1.128-1.368.144-.528.104-1.008-.12-1.44-.224-.432-.584-.704-1.08-.816-.496-.112-1.08.024-1.752.408-.992.64-2.016 1.08-3.072 1.32a13.65 13.65 0 01-3.024.36c-4.8 0-7.376-2.432-7.728-7.296h15.264c1.28 0 1.92-.544 1.92-1.632 0-3.616-.928-6.456-2.784-8.52-1.856-2.064-4.4-3.096-7.632-3.096-2.24 0-4.224.512-5.952 1.536-1.728 1.024-3.08 2.456-4.056 4.296-.976 1.84-1.464 3.96-1.464 6.36 0 3.744 1.104 6.696 3.312 8.856 2.208 2.16 5.232 3.24 9.072 3.24zm5.424-14.016H56.264c.256-2.08.976-3.744 2.16-4.992 1.184-1.248 2.784-1.872 4.8-1.872 1.888 0 3.36.6 4.416 1.8 1.056 1.2 1.632 2.888 1.728 5.064zm16.096 13.92c1.376 0 2.368-.72 2.976-2.16l8.112-18.672c.352-.832.368-1.584.048-2.256-.32-.672-.912-1.008-1.776-1.008-.672 0-1.192.144-1.56.432-.368.288-.696.784-.984 1.488l-6.72 16.224-6.576-16.224c-.288-.704-.616-1.2-.984-1.488-.368-.288-.84-.432-1.416-.432-1.088 0-1.808.336-2.16 1.008-.352.672-.336 1.44.048 2.304l8.016 18.624c.64 1.44 1.632 2.16 2.976 2.16zm24.448.096c1.312 0 2.696-.184 4.152-.552 1.456-.368 2.728-.92 3.816-1.656.608-.384.984-.84 1.128-1.368.144-.528.104-1.008-.12-1.44-.224-.432-.584-.704-1.08-.816-.496-.112-1.08.024-1.752.408-.992.64-2.016 1.08-3.072 1.32a13.65 13.65 0 01-3.024.36c-4.8 0-7.376-2.432-7.728-7.296h15.264c1.28 0 1.92-.544 1.92-1.632 0-3.616-.928-6.456-2.784-8.52-1.856-2.064-4.4-3.096-7.632-3.096-2.24 0-4.224.512-5.952 1.536-1.728 1.024-3.08 2.456-4.056 4.296-.976 1.84-1.464 3.96-1.464 6.36 0 3.744 1.104 6.696 3.312 8.856 2.208 2.16 5.232 3.24 9.072 3.24zm5.424-14.016h-13.104c.256-2.08.976-3.744 2.16-4.992 1.184-1.248 2.784-1.872 4.8-1.872 1.888 0 3.36.6 4.416 1.8 1.056 1.2 1.632 2.888 1.728 5.064zm25.936 13.92c1.6 0 2.4-.816 2.4-2.448V34.552c0-6.272-2.768-9.408-8.304-9.408-1.728 0-3.288.368-4.68 1.104-1.392.736-2.488 1.808-3.288 3.216v-1.776c0-1.632-.784-2.448-2.352-2.448-1.568 0-2.352.816-2.352 2.448v19.2c0 1.632.8 2.448 2.4 2.448 1.632 0 2.448-.816 2.448-2.448V35.752c0-2.016.584-3.64 1.752-4.872 1.168-1.232 2.728-1.848 4.68-1.848 1.664 0 2.888.464 3.672 1.392.784.928 1.176 2.4 1.176 4.416v12.048c0 1.632.816 2.448 2.448 2.448zm17.056.096c.512 0 1.096-.048 1.752-.144.656-.096 1.176-.224 1.56-.384.448-.128.76-.392.936-.792.176-.4.264-.856.264-1.368 0-.672-.112-1.128-.336-1.368a1.129 1.129 0 00-.864-.36c-.32.032-.688.104-1.104.216-.416.112-.912.168-1.488.168-1.632 0-2.808-.432-3.528-1.296-.72-.864-1.08-2.144-1.08-3.84V29.32h5.616c1.344 0 2.016-.624 2.016-1.872 0-1.248-.672-1.872-2.016-1.872h-5.616v-4.944c0-1.632-.8-2.448-2.4-2.448-1.632 0-2.448.816-2.448 2.448v4.944h-2.88c-1.344 0-2.016.624-2.016 1.872 0 1.248.672 1.872 2.016 1.872h2.88v11.328c0 2.848.72 5.024 2.16 6.528 1.44 1.504 3.632 2.256 6.576 2.256z" fill="#2C343C" fill-rule="nonzero"/></g></svg>

<?xml version="1.0" encoding="UTF-8"?>
<svg width="163px" height="50px" viewBox="0 0 163 50" version="1.1" xmlns="http://www.w3.org/2000/svg" xmlns:xlink="http://www.w3.org/1999/xlink">
    <title>Group 3</title>
    <g id="Page-1" stroke="none" stroke-width="1" fill="none" fill-rule="evenodd">
        <g id="logo" transform="translate(-106.000000, -320.000000)">
            <g id="Group-3" transform="translate(106.000000, 320.000000)">
                <g id="Group">
                    <polyline id="Fill-78" fill="#EF3054" points="26 5 26 16.0372552 0 42 0 30.9627448 26 5"></polyline>
                    <polyline id="Fill-79" fill="#EF3054" points="49.11 3.2108 49.11 16.8612 17 48.9712 17 35.3208 49.11 3.2108"></polyline>
                    <polyline id="Fill-80" fill="#8696A6" opacity="0.5" points="33 4 33 15.0372552 7 41 7 29.9627448 33 4"></polyline>
                    <polyline id="Fill-81" fill="#8696A6" opacity="0.5" points="58.6756 0.4108 58.6756 14.0612 26.566 46.1712 26.566 32.5208 58.6756 0.4108"></polyline>
                </g>
                <path d="M63.944,49.432 C65.256,49.432 66.64,49.248 68.096,48.88 C69.552,48.512 70.824,47.96 71.912,47.224 C72.52,46.84 72.896,46.384 73.04,45.856 C73.184,45.328 73.144,44.848 72.92,44.416 C72.696,43.984 72.336,43.712 71.84,43.6 C71.344,43.488 70.76,43.624 70.088,44.008 C69.096,44.648 68.072,45.088 67.016,45.328 C65.96,45.568 64.952,45.688 63.992,45.688 C59.192,45.688 56.616,43.256 56.264,38.392 L56.264,38.392 L71.528,38.392 C72.808,38.392 73.448,37.848 73.448,36.76 C73.448,33.144 72.52,30.304 70.664,28.24 C68.808,26.176 66.264,25.144 63.032,25.144 C60.792,25.144 58.808,25.656 57.08,26.68 C55.352,27.704 54,29.136 53.024,30.976 C52.048,32.816 51.56,34.936 51.56,37.336 C51.56,41.08 52.664,44.032 54.872,46.192 C57.08,48.352 60.104,49.432 63.944,49.432 Z M69.368,35.416 L56.264,35.416 C56.52,33.336 57.24,31.672 58.424,30.424 C59.608,29.176 61.208,28.552 63.224,28.552 C65.112,28.552 66.584,29.152 67.64,30.352 C68.696,31.552 69.272,33.24 69.368,35.416 L69.368,35.416 Z M85.464,49.336 C86.84,49.336 87.832,48.616 88.44,47.176 L88.44,47.176 L96.552,28.504 C96.904,27.672 96.92,26.92 96.6,26.248 C96.28,25.576 95.688,25.24 94.824,25.24 C94.152,25.24 93.632,25.384 93.264,25.672 C92.896,25.96 92.568,26.456 92.28,27.16 L92.28,27.16 L85.56,43.384 L78.984,27.16 C78.696,26.456 78.368,25.96 78,25.672 C77.632,25.384 77.16,25.24 76.584,25.24 C75.496,25.24 74.776,25.576 74.424,26.248 C74.072,26.92 74.088,27.688 74.472,28.552 L74.472,28.552 L82.488,47.176 C83.128,48.616 84.12,49.336 85.464,49.336 Z M109.912,49.432 C111.224,49.432 112.608,49.248 114.064,48.88 C115.52,48.512 116.792,47.96 117.88,47.224 C118.488,46.84 118.864,46.384 119.008,45.856 C119.152,45.328 119.112,44.848 118.888,44.416 C118.664,43.984 118.304,43.712 117.808,43.6 C117.312,43.488 116.728,43.624 116.056,44.008 C115.064,44.648 114.04,45.088 112.984,45.328 C111.928,45.568 110.92,45.688 109.96,45.688 C105.16,45.688 102.584,43.256 102.232,38.392 L102.232,38.392 L117.496,38.392 C118.776,38.392 119.416,37.848 119.416,36.76 C119.416,33.144 118.488,30.304 116.632,28.24 C114.776,26.176 112.232,25.144 109,25.144 C106.76,25.144 104.776,25.656 103.048,26.68 C101.32,27.704 99.968,29.136 98.992,30.976 C98.016,32.816 97.528,34.936 97.528,37.336 C97.528,41.08 98.632,44.032 100.84,46.192 C103.048,48.352 106.072,49.432 109.912,49.432 Z M115.336,35.416 L102.232,35.416 C102.488,33.336 103.208,31.672 104.392,30.424 C105.576,29.176 107.176,28.552 109.192,28.552 C111.08,28.552 112.552,29.152 113.608,30.352 C114.664,31.552 115.24,33.24 115.336,35.416 L115.336,35.416 Z M141.272,49.336 C142.872,49.336 143.672,48.52 143.672,46.888 L143.672,46.888 L143.672,34.552 C143.672,28.28 140.904,25.144 135.368,25.144 C133.64,25.144 132.08,25.512 130.688,26.248 C129.296,26.984 128.2,28.056 127.4,29.464 L127.4,29.464 L127.4,27.688 C127.4,26.056 126.616,25.24 125.048,25.24 C123.48,25.24 122.696,26.056 122.696,27.688 L122.696,27.688 L122.696,46.888 C122.696,48.52 123.496,49.336 125.096,49.336 C126.728,49.336 127.544,48.52 127.544,46.888 L127.544,46.888 L127.544,35.752 C127.544,33.736 128.128,32.112 129.296,30.88 C130.464,29.648 132.024,29.032 133.976,29.032 C135.64,29.032 136.864,29.496 137.648,30.424 C138.432,31.352 138.824,32.824 138.824,34.84 L138.824,34.84 L138.824,46.888 C138.824,48.52 139.64,49.336 141.272,49.336 Z M158.328,49.432 C158.84,49.432 159.424,49.384 160.08,49.288 C160.736,49.192 161.256,49.064 161.64,48.904 C162.088,48.776 162.4,48.512 162.576,48.112 C162.752,47.712 162.84,47.256 162.84,46.744 C162.84,46.072 162.728,45.616 162.504,45.376 C162.28,45.136 161.992,45.016 161.64,45.016 C161.32,45.048 160.952,45.12 160.536,45.232 C160.12,45.344 159.624,45.4 159.048,45.4 C157.416,45.4 156.24,44.968 155.52,44.104 C154.8,43.24 154.44,41.96 154.44,40.264 L154.44,40.264 L154.44,29.32 L160.056,29.32 C161.4,29.32 162.072,28.696 162.072,27.448 C162.072,26.2 161.4,25.576 160.056,25.576 L160.056,25.576 L154.44,25.576 L154.44,20.632 C154.44,19 153.64,18.184 152.04,18.184 C150.408,18.184 149.592,19 149.592,20.632 L149.592,20.632 L149.592,25.576 L146.712,25.576 C145.368,25.576 144.696,26.2 144.696,27.448 C144.696,28.696 145.368,29.32 146.712,29.32 L146.712,29.32 L149.592,29.32 L149.592,40.648 C149.592,43.496 150.312,45.672 151.752,47.176 C153.192,48.68 155.384,49.432 158.328,49.432 Z" id="event" fill="#2C343C" fill-rule="nonzero"></path>
            </g>
        </g>
    </g>
</svg>
